svgs/sharp-regular/briefcase.svg

<svg xmlns="http://www.w3.org/2000/svg" viewBox="0 0 512 512"><!--! Font Awesome Pro 6.6.0 by @fontawesome - https://fontawesome.com License - https://fontawesome.com/license (Commercial License) Copyright 2024 Fonticons, Inc. --><path d="M152 0L128 0l0 24 0 72L48 96 0 96l0 48L0 280 0 432l0 48 48 0 416 0 48 0 0-48 0-152 0-136 0-48-48 0-80 0 0-72 0-24L360 0 152 0zM464 256l-144 0-128 0L48 256l0-112 104 0 208 0 104 0 0 112zM320 304l144 0 0 128L48 432l0-128 144 0 0 48 128 0 0-48zM336 96L176 96l0-48 160 0 0 48z"/></svg>

<svg xmlns="http://www.w3.org/2000/svg" viewBox="0 0 512 512"><!--! Font Awesome Pro 6.4.0 by @fontawesome - https://fontawesome.com License - https://fontawesome.com/license (Commercial License) Copyright 2023 Fonticons, Inc. --><path d="M152 0H128V24 96H48 0v48V280 432v48H48 464h48V432 280 144 96H464 384V24 0H360 152zM464 256H320 192 48V144H152 360 464V256zM320 304H464V432H48V304H192v48H320V304zM336 96H176V48H336V96z"/></svg>
